img/home.svg

<svg enable-background="new 0 0 512 512" viewBox="0 0 512 512" xmlns="http://www.w3.org/2000/svg"><g fill="#fff"><path d="m506.6 208.1-242.7-177.7c-4.7-3.4-11-3.4-15.7 0l-242.8 177.7c-5.9 4.3-7.2 12.7-2.9 18.6s12.7 7.2 18.6 2.9l234.9-172 234.8 171.9c2.4 1.7 5.1 2.6 7.8 2.6 4.1 0 8.1-1.9 10.7-5.4 4.5-6 3.2-14.3-2.7-18.6z"/><path d="m442.2 232.5c-7.3 0-13.3 6-13.3 13.3v211.7h-106.4v-115.5c0-36.7-29.8-66.5-66.5-66.5s-66.5 29.8-66.5 66.5v115.6h-106.4v-211.8c0-7.3-6-13.3-13.3-13.3s-13.3 6-13.3 13.3v225.1c0 7.3 6 13.3 13.3 13.3h133c7 0 12.7-5.4 13.3-12.3 0-.3.1-.7.1-1v-128.9c0-22 17.9-39.9 39.9-39.9s39.9 17.9 39.9 39.9v128.9c0 .4 0 .7.1 1 .5 6.9 6.3 12.3 13.3 12.3h133c7.3 0 13.3-6 13.3-13.3v-225.1c-.2-7.3-6.1-13.3-13.5-13.3z"/></g></svg>

<?xml version="1.0" encoding="utf-8"?>
<!-- Generator: Adobe Illustrator 22.0.1, SVG Export Plug-In . SVG Version: 6.00 Build 0)  -->
<svg version="1.1" id="Layer_1" xmlns="http://www.w3.org/2000/svg" xmlns:xlink="http://www.w3.org/1999/xlink" x="0px" y="0px"
	 viewBox="0 0 512 512" style="enable-background:new 0 0 512 512;" xml:space="preserve">
<style type="text/css">
	.st0{fill:#FFFFFF;}
</style>
<g>
	<g>
		<path class="st0" d="M506.6,208.1L263.9,30.4c-4.7-3.4-11-3.4-15.7,0L5.4,208.1c-5.9,4.3-7.2,12.7-2.9,18.6s12.7,7.2,18.6,2.9
			L256,57.6l234.8,171.9c2.4,1.7,5.1,2.6,7.8,2.6c4.1,0,8.1-1.9,10.7-5.4C513.8,220.7,512.5,212.4,506.6,208.1z"/>
	</g>
</g>
<g>
	<g>
		<path class="st0" d="M442.2,232.5c-7.3,0-13.3,6-13.3,13.3v211.7H322.5V342c0-36.7-29.8-66.5-66.5-66.5s-66.5,29.8-66.5,66.5
			v115.6H83.1V245.8c0-7.3-6-13.3-13.3-13.3s-13.3,6-13.3,13.3v225.1c0,7.3,6,13.3,13.3,13.3h133c7,0,12.7-5.4,13.3-12.3
			c0-0.3,0.1-0.7,0.1-1V342c0-22,17.9-39.9,39.9-39.9s39.9,17.9,39.9,39.9v128.9c0,0.4,0,0.7,0.1,1c0.5,6.9,6.3,12.3,13.3,12.3h133
			c7.3,0,13.3-6,13.3-13.3V245.8C455.5,238.5,449.6,232.5,442.2,232.5z"/>
	</g>
</g>
</svg>
